packages/icons/src/components/Logo/assets/dark/python.svg

<svg width="20" height="20" viewBox="0 0 20 20" fill="none" xmlns="http://www.w3.org/2000/svg">
<g>
<path d="M9.88279 0.000172136C9.06639 0.00407839 8.28904 0.0743909 7.60154 0.195485C5.58201 0.550953 5.21482 1.29705 5.21482 2.67595V4.49236H9.98435V5.09783H3.42576C2.03904 5.09783 0.824198 5.92986 0.445291 7.5158C0.00779143 9.33611 -0.0117398 10.4689 0.445291 12.3674C0.785135 13.7814 1.59373 14.7853 2.98045 14.7853H4.62107V12.6056C4.62107 11.0314 5.98435 9.6408 7.60154 9.6408H12.3672C13.6953 9.6408 14.7539 8.54705 14.7539 7.21502V2.67595C14.7539 1.38298 13.664 0.410328 12.3672 0.195485C11.5469 0.0587659 10.6992 -0.00373411 9.88279 0.000172136ZM7.30076 1.46111C7.79295 1.46111 8.19529 1.87127 8.19529 2.37127C8.19529 2.87127 7.79295 3.27752 7.30076 3.27752C6.80857 3.28142 6.40623 2.87517 6.40623 2.37517C6.40623 1.87127 6.80857 1.46111 7.30076 1.46111ZM15.3476 5.10174V7.21892C15.3476 8.86345 13.9531 10.2424 12.3672 10.2424H7.60154C6.29685 10.2424 5.21482 11.3595 5.21482 12.6681V17.2111C5.21482 18.5041 6.33982 19.2658 7.60154 19.6369C9.11326 20.0822 10.5586 20.1603 12.3672 19.6369C13.5703 19.2892 14.7539 18.59 14.7539 17.2111V15.3908H9.98826V14.7853H17.1406C18.5273 14.7853 19.0429 13.8166 19.5273 12.3674C20.0273 10.8713 20.0039 9.43377 19.5273 7.5197C19.1836 6.1408 18.5312 5.10174 17.1406 5.10174H15.3476ZM12.6679 16.6056C13.164 16.6056 13.5625 17.0119 13.5625 17.5119C13.5625 18.0158 13.1601 18.422 12.6679 18.422C12.1758 18.422 11.7734 18.0119 11.7734 17.5119C11.7734 17.0119 12.1758 16.6056 12.6679 16.6056Z" fill="white"/>
</g>
<defs>
<clipPath id="clip0_378_557">
<rect width="20" height="20" fill="white"/>
</clipPath>
</defs>
</svg>

<svg xmlns="http://www.w3.org/2000/svg" width="20" height="20" fill="none" viewBox="0 0 20 20">
    <path fill="#fff" d="M9.883 0a13.7 13.7 0 0 0-2.281.195c-2.02.356-2.387 1.102-2.387 2.48v1.817h4.77v.606h-6.56c-1.386 0-2.6.832-2.98 2.418-.437 1.82-.457 2.953 0 4.851.34 1.414 1.149 2.418 2.535 2.418h1.641v-2.18c0-1.574 1.363-2.964 2.98-2.964h4.766c1.328 0 2.387-1.094 2.387-2.426v-4.54c0-1.292-1.09-2.265-2.387-2.48A15 15 0 0 0 9.883 0M7.3 1.461c.492 0 .894.41.894.91s-.402.907-.894.907a.896.896 0 0 1-.895-.903c0-.504.403-.914.895-.914m8.047 3.64V7.22c0 1.644-1.395 3.023-2.98 3.023H7.601c-1.305 0-2.387 1.117-2.387 2.426v4.543c0 1.293 1.125 2.055 2.387 2.426 1.511.445 2.957.523 4.765 0 1.203-.348 2.387-1.047 2.387-2.426v-1.82H9.988v-.606h7.153c1.386 0 1.902-.968 2.386-2.418.5-1.496.477-2.933 0-4.847-.343-1.38-.996-2.418-2.386-2.418zm-2.68 11.505a.9.9 0 0 1 .895.906c0 .504-.403.91-.895.91a.905.905 0 0 1-.895-.91c0-.5.403-.906.895-.906"/>
</svg>
